build/img/svg/soon.svg

<svg width="101" height="101" viewBox="0 0 101 101" fill="none" xmlns="http://www.w3.org/2000/svg">
<path d="M50.8903 0L101 50.0965V101L0 0H50.8903Z" fill="#FF4958"/>
<path d="M42.1414 25.8557C44.4421 28.2382 47.128 28.2469 48.8242 26.6089C50.8311 24.6708 50.2768 22.8789 48.2726 20.2853C47.3151 18.9828 47.2731 18.4729 47.791 17.9727C48.2572 17.5226 48.931 17.5726 49.6187 18.2847C50.3189 19.0098 50.3449 19.7104 49.7721 20.4387L52.1478 22.8989C53.9404 20.8425 53.6598 18.6862 51.5091 16.4591C49.371 14.245 46.8284 14.0479 45.1581 15.6609C43.2936 17.4614 43.367 19.0921 45.582 22.0077C46.489 23.2838 46.6712 23.7835 46.1015 24.3336C45.5577 24.8588 44.7696 24.7941 44.0318 24.0302C42.969 22.9296 43.2253 22.1066 43.8231 21.4042L41.3848 18.8793C39.4529 20.8951 39.6407 23.2661 42.1414 25.8557ZM51.175 35.2103C54.0634 38.2013 57.8937 38.2809 60.7422 35.53L60.8458 35.43C63.7203 32.6541 63.4811 28.8565 60.7552 26.0338C58.0794 23.2629 54.1384 22.9649 51.3157 25.6908L51.2121 25.7908C48.4282 28.4791 48.2866 32.2192 51.175 35.2103ZM53.3096 33.2489C52.0717 31.9671 52.2176 30.1747 53.9009 28.5492L54.0044 28.4492C55.6877 26.8237 57.4207 26.7266 58.6835 28.0344C59.9464 29.3421 59.7756 31.1086 58.1312 32.6966L58.0276 32.7966C56.3702 34.3971 54.5725 34.5567 53.3096 33.2489ZM61.4198 45.8191C64.3082 48.8101 68.1385 48.8897 70.9871 46.1389L71.0907 46.0388C73.9652 43.263 73.7259 39.4653 71.0001 36.6426C68.3243 33.8717 64.3832 33.5738 61.5605 36.2996L61.4569 36.3997C58.6731 39.088 58.5314 42.8281 61.4198 45.8191ZM63.5545 43.8578C62.3166 42.5759 62.4625 40.7836 64.1457 39.1581L64.2493 39.058C65.9326 37.4325 67.6655 37.3355 68.9284 38.6432C70.1913 39.951 70.0204 41.7175 68.376 43.3055L68.2724 43.4055C66.6151 45.006 64.8174 45.1655 63.5545 43.8578ZM67.6063 51.9144L69.8569 54.2451L75.6707 48.6308L73.1205 57.6245L75.5962 60.1883L84.8541 51.248L82.6159 48.9303L77.3978 53.9693L79.7525 45.9652L76.8642 42.9742L67.6063 51.9144Z" fill="white"/>
</svg>

<svg width="101" height="101" viewBox="0 0 101 101" fill="none" xmlns="http://www.w3.org/2000/svg"><path d="M50.89 0L101 50.096V101L0 0h50.89z" fill="#FF4958"/><path d="M42.141 25.856c2.301 2.382 4.987 2.39 6.683.753 2.007-1.938 1.453-3.73-.551-6.324-.958-1.302-1-1.812-.482-2.312.466-.45 1.14-.4 1.828.312.7.725.726 1.425.153 2.154l2.376 2.46c1.792-2.056 1.512-4.213-.639-6.44-2.138-2.214-4.68-2.411-6.35-.798-1.865 1.8-1.792 3.431.423 6.347.907 1.276 1.09 1.776.52 2.326-.544.525-1.332.46-2.07-.304-1.063-1.1-.807-1.923-.209-2.626l-2.438-2.525c-1.932 2.016-1.744 4.387.756 6.977zm9.034 9.354c2.888 2.991 6.719 3.07 9.567.32l.104-.1c2.874-2.776 2.635-6.573-.09-9.396-2.677-2.771-6.618-3.07-9.44-.343l-.104.1c-2.784 2.688-2.925 6.428-.037 9.42zm2.135-1.961c-1.238-1.282-1.092-3.074.59-4.7l.104-.1c1.684-1.625 3.417-1.722 4.68-.415 1.262 1.308 1.092 3.075-.553 4.663l-.103.1c-1.658 1.6-3.456 1.76-4.718.452zm8.11 12.57c2.888 2.991 6.718 3.07 9.567.32l.104-.1c2.874-2.776 2.635-6.574-.09-9.396-2.677-2.771-6.618-3.07-9.44-.343l-.104.1c-2.784 2.688-2.926 6.428-.037 9.42zm2.134-1.961c-1.237-1.282-1.092-3.074.592-4.7l.103-.1c1.684-1.626 3.416-1.722 4.68-.415 1.262 1.308 1.091 3.075-.553 4.663l-.104.1c-1.657 1.6-3.455 1.76-4.718.452zm4.052 8.056l2.25 2.331 5.815-5.614-2.55 8.993 2.475 2.564 9.258-8.94-2.238-2.318-5.218 5.04 2.355-8.005-2.889-2.99-9.258 8.94z" fill="#fff"/></svg>
